local/share/icons/dracula-icons-main/scalable/apps/tigervnc.svg

<?xml version="1.0" encoding="UTF-8"?>
<svg xmlns="http://www.w3.org/2000/svg" xmlns:xlink="http://www.w3.org/1999/xlink" width="64" height="64" viewBox="0 0 64 64">
<defs>
<filter id="filter-remove-color" x="0%" y="0%" width="100%" height="100%">
<feColorMatrix color-interpolation-filters="sRGB" values="0 0 0 0 1 0 0 0 0 1 0 0 0 0 1 0 0 0 1 0" />
</filter>
<mask id="mask-0">
<g filter="url(#filter-remove-color)">
<rect x="-6.4" y="-6.4" width="76.8" height="76.8" fill="rgb(0%, 0%, 0%)" fill-opacity="0.65"/>
</g>
</mask>
<clipPath id="clip-0">
<rect x="0" y="0" width="64" height="64"/>
</clipPath>
<g id="source-5380" clip-path="url(#clip-0)">
<path fill-rule="nonzero" fill="rgb(0%, 0%, 0%)" fill-opacity="1" d="M 21.136719 7.28125 C 19.898438 7.824219 18.714844 8.453125 17.589844 9.171875 C 17.847656 10.125 18.117188 11.128906 18.304688 11.765625 C 18.761719 13.222656 20.101562 17.296875 20.722656 17.367188 C 21.132812 17.414062 20.394531 11.839844 20.5 9.996094 C 20.550781 9.160156 20.789062 8.21875 21.140625 7.28125 Z M 29.464844 8.5 C 28.925781 8.460938 28.425781 9.058594 28.398438 10.59375 C 28.339844 13.585938 26.484375 16.285156 25.003906 18.742188 C 23.535156 21.171875 24.980469 21.921875 26.765625 20.113281 C 28.6875 18.164062 30.601562 13.878906 30.792969 11.144531 C 30.902344 9.644531 30.152344 8.550781 29.464844 8.5 Z M 11.492188 14.453125 C 10.703125 15.371094 9.976562 16.34375 9.3125 17.367188 C 10.546875 19.011719 11.511719 20.835938 11.410156 23.203125 C 11.257812 27.242188 8.085938 31.984375 10.65625 35.855469 C 12.277344 38.300781 23.863281 44.472656 32.820312 44.355469 C 32.984375 44.355469 32.890625 44.285156 32.609375 44.167969 C 30.25 43.183594 14.402344 38.535156 13.507812 35.421875 C 13.296875 34.707031 13.367188 34.105469 15.351562 34.140625 C 21.1875 34.25 19.285156 39.0625 29.21875 38.792969 C 31.390625 38.699219 33.621094 37.882812 34.957031 36.410156 C 36.566406 34.765625 37.351562 32.746094 38.421875 31.972656 C 43.796875 28.0625 43.410156 28.835938 45.488281 27.699219 C 49.574219 25.46875 47 22.285156 45.488281 23.953125 C 43.679688 25.949219 40.578125 24.425781 36.421875 24.367188 C 33.347656 24.0625 27.550781 26.011719 24.449219 27.957031 C 19.484375 31.082031 20.179688 27.558594 19.332031 24.542969 C 19.273438 24.953125 18.792969 28.160156 19.332031 30.222656 C 17.007812 31.035156 16.585938 31.09375 14.636719 31.046875 C 13.957031 31.046875 12.464844 31.1875 12.5 29.332031 C 12.535156 27.59375 12.898438 26.246094 13.144531 24.8125 C 13.296875 23.921875 13.417969 22.980469 13.382812 21.890625 C 13.300781 19.355469 12.347656 16.925781 11.492188 14.453125 Z M 44.011719 17.371094 C 37.628906 17.324219 28.734375 19.203125 29.886719 21.277344 C 30.226562 21.886719 30.792969 22.144531 31.519531 22.167969 C 33.597656 22.226562 36.976562 20.382812 39.960938 19.644531 C 42.132812 19.105469 45.417969 19.375 47.648438 19.421875 C 49.328125 19.46875 50.40625 19.398438 49.984375 18.789062 C 49.296875 17.808594 46.914062 17.390625 44.011719 17.371094 Z M 58.800781 35.238281 C 58.03125 36.015625 57.308594 36.800781 56.757812 37.429688 C 50.066406 45.152344 45.371094 54.59375 19.570312 47.855469 C 12.761719 46.070312 10.085938 45.613281 16.152344 48.9375 C 34.449219 58.964844 47.46875 54.011719 53.953125 47.714844 C 56.535156 44.117188 58.246094 39.859375 58.800781 35.238281 Z M 58.800781 35.238281 "/>
</g>
</defs>
<path fill-rule="nonzero" fill="rgb(100%, 55.294118%, 23.921569%)" fill-opacity="1" d="M 32 5 C 46.910156 5 59 17.089844 59 32 C 59 46.910156 46.910156 59 32 59 C 17.089844 59 5 46.910156 5 32 C 5 17.089844 17.089844 5 32 5 Z M 32 5 "/>
<g mask="url(#mask-0)">
<use xlink:href="#source-5380"/>
</g>
<path fill-rule="nonzero" fill="rgb(100%, 100%, 100%)" fill-opacity="1" d="M 43.78125 19.3125 C 42.410156 19.304688 41.042969 19.375 39.957031 19.644531 C 37.972656 20.136719 35.820312 21.105469 33.984375 21.691406 C 33.984375 21.699219 33.976562 21.703125 33.972656 21.710938 C 33.9375 21.714844 33.898438 21.722656 33.863281 21.726562 C 32.988281 22 32.183594 22.1875 31.519531 22.167969 C 31.390625 22.164062 31.269531 22.140625 31.152344 22.121094 C 26.859375 22.648438 22.007812 22.832031 17.257812 23.28125 C 14.71875 23.515625 13.414062 24.78125 12.832031 26.492188 C 12.667969 27.367188 12.523438 28.277344 12.503906 29.332031 C 12.46875 31.1875 13.957031 31.046875 14.640625 31.046875 C 16.585938 31.09375 17.011719 31.035156 19.335938 30.222656 C 18.792969 28.15625 19.277344 24.953125 19.335938 24.542969 C 20.179688 27.558594 19.484375 31.082031 24.453125 27.957031 C 27.550781 26.007812 33.347656 24.0625 36.425781 24.367188 C 40.578125 24.425781 43.679688 25.949219 45.488281 23.953125 C 47.003906 22.285156 49.574219 25.46875 45.488281 27.699219 C 43.410156 28.835938 43.800781 28.0625 38.421875 31.972656 C 37.355469 32.746094 36.566406 34.765625 34.957031 36.410156 C 33.625 37.882812 31.390625 38.699219 29.21875 38.792969 C 19.289062 39.0625 21.1875 34.246094 15.355469 34.140625 C 13.394531 34.105469 13.304688 34.695312 13.507812 35.398438 C 13.507812 35.40625 13.511719 35.414062 13.511719 35.421875 C 13.515625 35.4375 13.523438 35.449219 13.527344 35.464844 C 14.5 38.429688 28.660156 42.710938 32.054688 43.964844 C 32.097656 43.980469 32.167969 44 32.210938 44.015625 C 37.105469 45.824219 42.203125 40.28125 44.140625 36.511719 C 45.183594 34.480469 46.097656 32.335938 47.683594 30.65625 C 49.738281 28.472656 52.929688 27.707031 54.703125 25.21875 C 56.921875 22.085938 52.308594 20.476562 50.019531 19.902344 C 49.210938 19.699219 48.335938 19.542969 47.433594 19.414062 C 46.355469 19.386719 45.078125 19.316406 43.78125 19.3125 Z M 43.78125 19.3125 "/>
<path fill-rule="nonzero" fill="rgb(58.039216%, 78.823529%, 29.019608%)" fill-opacity="1" d="M 35.0625 33.519531 C 35.121094 33.167969 35.15625 32.816406 35.15625 32.453125 C 35.15625 29.761719 33.410156 27.472656 30.992188 26.664062 C 28.300781 27.53125 25.917969 28.871094 23.722656 30.644531 C 23.5 30.820312 23.289062 30.984375 23.089844 31.113281 C 22.996094 31.546875 22.9375 31.992188 22.9375 32.453125 C 22.9375 33.835938 23.394531 35.117188 24.171875 36.136719 C 26.871094 37.183594 31.753906 36.558594 35.0625 33.519531 Z M 29.054688 30.925781 C 29.898438 30.925781 30.578125 31.605469 30.578125 32.453125 C 30.578125 33.296875 29.898438 33.976562 29.054688 33.976562 C 28.207031 33.976562 27.527344 33.296875 27.527344 32.453125 C 27.527344 31.605469 28.21875 30.925781 29.054688 30.925781 Z M 29.054688 30.925781 "/>
</svg>

<svg width="64" height="64" version="1.1" viewBox="0 0 64 64" xmlns="http://www.w3.org/2000/svg">
 <path d="m32 5c14.912 0 27 12.088 27 27s-12.088 27-27 27-27-12.088-27-27 12.088-27 27-27z" fill="#ff8d3d" stroke-width="1.1739"/>
 <g transform="matrix(1.1739 0 0 1.1739 5 5)"></g>
 <path d="m21.135 7.2812c-1.235 0.54352-2.4191 1.173-3.5449 1.8926 0.25709 0.95204 0.52819 1.954 0.71484 2.5937 0.45783 1.4557 1.7958 5.5292 2.418 5.5996 0.41087 0.046956-0.32831-5.5281-0.22266-7.3711 0.049304-0.83465 0.28767-1.7781 0.63867-2.7148zm8.3281 1.2188c-0.53652-0.038078-1.0356 0.55813-1.0664 2.0938-0.0587 2.9935-1.9134 5.693-3.3926 8.1465-1.4674 2.43-0.02458 3.1809 1.7598 1.373 1.9252-1.9487 3.8395-6.2335 4.0273-8.9688 0.11226-1.4989-0.63832-2.5956-1.3281-2.6445zm-17.971 5.9512c-0.78849 0.92001-1.5171 1.8932-2.1777 2.9141 1.2326 1.647 2.1955 3.4713 2.0957 5.8379-0.15261 4.0383-3.3228 8.7804-0.75195 12.654 1.62 2.4417 13.205 8.6174 22.162 8.5 0.16435 0 0.0708-0.07206-0.21094-0.18945-2.3596-0.98609-18.207-5.6333-19.1-8.7441-0.2113-0.71609-0.14016-1.3165 1.8438-1.2812 5.8343 0.10565 3.9339 4.9204 13.865 4.6504 2.1717-0.09274 4.4047-0.91073 5.7383-2.3828 1.6083-1.6435 2.3966-3.6627 3.4648-4.4375 5.3765-3.9091 4.9886-3.1347 7.0664-4.2734 4.0852-2.2304 1.5143-5.413 0-3.7461-1.8078 1.9957-4.9088 0.47276-9.0645 0.41406-3.0757-0.30522-8.8735 1.6431-11.973 3.5918-4.9657 3.1226-4.272-0.39906-5.1172-3.416-0.0587 0.41087-0.54 3.6156 0 5.6816-2.3243 0.81-2.7466 0.86922-4.6953 0.82227-0.68087 0-2.1719 0.13994-2.1367-1.7148 0.03522-1.7374 0.39801-3.0874 0.64453-4.5195 0.15261-0.89217 0.27155-1.8321 0.23633-2.9238-0.081-2.5321-1.0348-4.9641-1.8906-7.4375zm32.52 2.918c-6.385-0.04609-15.279 1.8321-14.125 3.9062 0.34044 0.61043 0.90499 0.8691 1.6328 0.89258 2.0778 0.0587 5.4577-1.7839 8.4395-2.5234 2.1717-0.54 5.459-0.26961 7.6895-0.22266 1.6787 0.04696 2.7585-0.02433 2.3359-0.63477-0.686-0.97948-3.0704-1.397-5.9727-1.418zm14.787 17.871c-0.76656 0.77478-1.4893 1.5602-2.041 2.1895-6.6913 7.7243-11.387 17.164-37.189 10.426-6.8087-1.7843-9.4851-2.2421-3.416 1.0801 18.297 10.03 31.315 5.0762 37.801-1.2207 2.5814-3.5992 4.2928-7.8564 4.8457-12.475z" fill="#000000" opacity=".65" stroke-width="1.1739"/>
 <path d="m43.781 19.312c-1.3721-0.005966-2.7364 0.062031-3.8223 0.33203-1.9841 0.49212-4.1369 1.4631-5.9727 2.0469-0.003399 0.006964-0.010361 0.012538-0.013672 0.019532-0.034921 0.006265-0.072392 0.011386-0.10742 0.017578-0.8751 0.27182-1.6813 0.45822-2.3457 0.43945-0.1301-0.004197-0.24787-0.026982-0.36719-0.046875-4.2941 0.52818-9.1451 0.71187-13.896 1.1621-2.5391 0.23423-3.8433 1.4978-4.4258 3.2109-0.1638 0.8753-0.30672 1.7818-0.32812 2.8379-0.035217 1.8548 1.4558 1.7148 2.1367 1.7148 1.9487 0.046957 2.371-0.012266 4.6953-0.82227-0.54-2.0661-0.0587-5.2708 0-5.6816 0.84522 3.017 0.15154 6.5386 5.1172 3.416 3.0991-1.9487 8.897-3.897 11.973-3.5918 4.1557 0.058695 7.2566 1.5816 9.0645-0.41406 1.5143-1.667 4.0852 1.5157 0 3.7461-2.0778 1.1387-1.6899 0.36431-7.0664 4.2734-1.0683 0.77478-1.8566 2.794-3.4648 4.4375-1.3336 1.4721-3.5665 2.2901-5.7383 2.3828-9.9313 0.27-8.0309-4.5447-13.865-4.6504-1.961-0.03481-2.0499 0.55271-1.8477 1.2578 0.001944 0.006805 0.003916 0.01469 0.00586 0.021484 0.004289 0.015106 0.011095 0.029864 0.015625 0.044922 0.97249 2.9617 15.132 7.2439 18.525 8.498 0.043973 0.015725 0.11618 0.035236 0.1582 0.050781 4.8952 1.8078 9.9908-3.7337 11.928-7.502 1.0448-2.0309 1.9601-4.1787 3.5449-5.8574 2.0543-2.1835 5.2469-2.9469 7.0195-5.4355 2.2187-3.1343-2.3945-4.7431-4.6836-5.3184-0.8108-0.20107-1.6857-0.35767-2.5859-0.48633-1.0802-0.027659-2.3565-0.097881-3.6523-0.10352z" fill="#ffffff" stroke-width="1.1739"/>
 <path d="m35.064 33.52c0.0587-0.35217 0.09391-0.70435 0.09391-1.0683 0-2.6883-1.7491-4.9774-4.1674-5.7874-2.6883 0.8687-5.0713 2.207-7.2665 3.9796-0.22304 0.17609-0.43435 0.34044-0.63391 0.46957-0.09391 0.43435-0.15261 0.88043-0.15261 1.3383 0 1.3852 0.45783 2.6648 1.2326 3.6861 2.7 1.0448 7.5835 0.42261 10.894-2.6178zm-6.0104-2.5943c0.84522 0 1.5261 0.68087 1.5261 1.5261 0 0.84522-0.68087 1.5261-1.5261 1.5261-0.84522 0-1.5261-0.68087-1.5261-1.5261 0-0.84522 0.69261-1.5261 1.5261-1.5261z" fill="#94c94a" stroke-width="1.1739"/>
</svg>
